X:145
T: Raymond Roland's
T: Miss Patterson's Slippers
T: Master Crowley's
T: Blue Bell
S: "First Collection of Traditional Irish Music" (M.Mulvihill)
Z: B.Black
L: 1/8
M: 4/4
R: reel
K: Ddor
A,D (3DDD ADFD|C2 EC A,CEC|A,D (3DDD A,DFD|EGcG EGDC|
A,D (3DDD ADFD|C2 EC A,CEC|A,D (3DDD A,DFD|EGcG ED D2||
Aafa efdf|ec (3cBc acgc|Aafa efdf|ecGE FD D2|
Aafa efdf|ecgc ac (3cBc|DEFG AG (3GFG|EDCD ED D2||
